static/assets/items/plastanium.svg

<?xml version="1.0" encoding="UTF-8" standalone="no"?>
<!-- Created with Inkscape (http://www.inkscape.org/) -->

<svg
   xmlns:dc="http://purl.org/dc/elements/1.1/"
   xmlns:cc="http://creativecommons.org/ns#"
   xmlns:rdf="http://www.w3.org/1999/02/22-rdf-syntax-ns#"
   xmlns:svg="http://www.w3.org/2000/svg"
   xmlns="http://www.w3.org/2000/svg"
   xmlns:sodipodi="http://sodipodi.sourceforge.net/DTD/sodipodi-0.dtd"
   xmlns:inkscape="http://www.inkscape.org/namespaces/inkscape"
   version="1.1"
   id="svg6966"
   width="32"
   height="32"
   viewBox="0 0 32 32"
   sodipodi:docname="plastanium.svg"
   inkscape:version="0.92.5 (2060ec1f9f, 2020-04-08)">
  <metadata
     id="metadata6972">
    <rdf:RDF>
      <cc:Work
         rdf:about="">
        <dc:format>image/svg+xml</dc:format>
        <dc:type
           rdf:resource="http://purl.org/dc/dcmitype/StillImage" />
        <dc:title></dc:title>
      </cc:Work>
    </rdf:RDF>
  </metadata>
  <defs
     id="defs6970" />
  <sodipodi:namedview
     pagecolor="#ffffff"
     bordercolor="#666666"
     borderopacity="1"
     objecttolerance="10"
     gridtolerance="10"
     guidetolerance="10"
     inkscape:pageopacity="0"
     inkscape:pageshadow="2"
     inkscape:window-width="1366"
     inkscape:window-height="705"
     id="namedview6968"
     showgrid="false"
     inkscape:zoom="7.375"
     inkscape:cx="16"
     inkscape:cy="16"
     inkscape:window-x="-8"
     inkscape:window-y="-8"
     inkscape:window-maximized="1"
     inkscape:current-layer="svg6966" />
  <g
     id="g7527">
    <path
       style="fill:#000000;fill-opacity:0"
       d="M 0,0.5 V 0 H 0.5 1 1.5 2 2.5 3 3.5 4 4.5 5 5.5 6 6.5 7 7.5 8 8.5 9 9.5 10 10.5 11 11.5 12 12.5 13 13.5 14 14.5 15 15.5 16 16.5 17 17.5 18 18.5 19 19.5 20 20.5 21 21.5 22 22.5 23 23.5 24 24.5 25 25.5 26 26.5 27 27.5 28 28.5 29 29.5 30 30.5 31 31.5 32 V 0.5 1 1.5 2 2.5 3 3.5 4 4.5 5 5.5 6 6.5 7 7.5 8 8.5 9 9.5 10 10.5 11 11.5 12 12.5 13 13.5 14 14.5 15 15.5 16 16.5 17 17.5 18 18.5 19 19.5 20 20.5 21 21.5 22 22.5 23 23.5 24 24.5 25 25.5 26 26.5 27 27.5 28 28.5 29 29.5 30 30.5 31 31.5 32 H 31.5 31 30.5 30 29.5 29 28.5 28 27.5 27 26.5 26 25.5 25 24.5 24 23.5 23 22.5 22 21.5 21 20.5 20 19.5 19 18.5 18 17.5 17 16.5 16 15.5 15 14.5 14 13.5 13 12.5 12 11.5 11 10.5 10 9.5 9 8.5 8 7.5 7 6.5 6 5.5 5 4.5 4 3.5 3 2.5 2 1.5 1 0.5 0 V 31.5 31 30.5 30 29.5 29 28.5 28 27.5 27 26.5 26 25.5 25 24.5 24 23.5 23 22.5 22 21.5 21 20.5 20 19.5 19 18.5 18 17.5 17 16.5 16 15.5 15 14.5 14 13.5 13 12.5 12 11.5 11 10.5 10 9.5 9 8.5 8 7.5 7 6.5 6 5.5 5 4.5 4 3.5 3 2.5 2 1.5 1 0.5 M 16.5,30 Q 17,30 17.375,29.875 17.75,29.75 18,29.5 18.25,29.25 18.5,29 18.75,28.75 19,28.5 19.25,28.25 19.5,28 19.75,27.75 20,27.5 20.25,27.25 20.5,27 20.75,26.75 21,26.5 21.25,26.25 21.5,26 21.75,25.75 22,25.5 22.25,25.25 22.5,25 22.75,24.75 23,24.5 23.25,24.25 23.5,24 23.75,23.75 24,23.5 24.25,23.25 24.5,23 24.75,22.75 25,22.5 25.25,22.25 25.5,22 25.75,21.75 26,21.5 26.25,21.25 26.5,21 26.75,20.75 27,20.5 27.25,20.25 27.5,20 27.75,19.75 27.875,19.375 28,19 28,18.5 q 0,-0.5 0,-1 0,-0.5 0,-1 0,-0.5 0,-1 0,-0.5 0,-1 V 14 13.5 Q 28,13 27.875,12.625 27.75,12.25 27.5,12 27.25,11.75 27,11.5 26.75,11.25 26.5,11 26.25,10.75 26,10.5 25.75,10.25 25.5,10 25.25,9.75 25,9.5 24.75,9.25 24.5,9 24.25,8.75 24,8.5 23.75,8.25 23.5,8 23.25,7.75 23,7.5 22.75,7.25 22.5,7 22.25,6.75 22,6.5 21.75,6.25 21.5,6 21.25,5.75 21,5.5 20.75,5.25 20.5,5 20.25,4.75 20,4.5 19.75,4.25 19.5,4 19.25,3.75 19,3.5 18.75,3.25 18.5,3 18.25,2.75 18,2.5 17.75,2.25 17.375,2.125 17,2 16.5,2 16,2 15.5,2 15,2 14.625,2.125 14.25,2.25 14,2.5 13.75,2.75 13.5,3 13.25,3.25 13,3.5 12.75,3.75 12.5,4 12.25,4.25 12,4.5 11.75,4.75 11.5,5 11.25,5.25 11,5.5 10.75,5.75 10.5,6 10.25,6.25 10,6.5 9.75,6.75 9.5,7 9.25,7.25 9,7.5 8.75,7.75 8.5,8 8.25,8.25 8,8.5 7.75,8.75 7.5,9 7.25,9.25 7,9.5 6.75,9.75 6.5,10 6.25,10.25 6,10.5 5.75,10.75 5.5,11 5.25,11.25 5,11.5 4.75,11.75 4.5,12 4.25,12.25 4.125,12.625 4,13 4,13.5 v 0.5 0.5 q 0,0.5 0,1 0,0.5 0,1 0,0.5 0,1 0,0.5 0,1 Q 4,19 4.125,19.375 4.25,19.75 4.5,20 q 0.25,0.25 0.5,0.5 0.25,0.25 0.5,0.5 0.25,0.25 0.5,0.5 0.25,0.25 0.5,0.5 0.25,0.25 0.5,0.5 0.25,0.25 0.5,0.5 0.25,0.25 0.5,0.5 0.25,0.25 0.5,0.5 0.25,0.25 0.5,0.5 0.25,0.25 0.5,0.5 0.25,0.25 0.5,0.5 0.25,0.25 0.5,0.5 0.25,0.25 0.5,0.5 0.25,0.25 0.5,0.5 0.25,0.25 0.5,0.5 0.25,0.25 0.5,0.5 0.25,0.25 0.5,0.5 0.25,0.25 0.5,0.5 0.25,0.25 0.5,0.5 0.25,0.25 0.625,0.375 Q 15,30 15.5,30 q 0.5,0 1,0"
       id="path7519"
       inkscape:connector-curvature="0" />
    <path
       style="fill:#cbd97f;fill-opacity:1"
       d="M 14,2.5 Q 14.25,2.25 14.625,2.125 15,2 15.5,2 16,2 16.5,2 17,2 17.375,2.125 17.75,2.25 18,2.5 q 0.25,0.25 0.5,0.5 0.25,0.25 0.5,0.5 0.25,0.25 0.5,0.5 0.25,0.25 0.5,0.5 0.25,0.25 0.5,0.5 0.25,0.25 0.5,0.5 0.25,0.25 0.5,0.5 0.25,0.25 0.5,0.5 0.25,0.25 0.5,0.5 0.25,0.25 0.5,0.5 0.25,0.25 0.5,0.5 0.25,0.25 0.5,0.5 0.25,0.25 0.5,0.5 0.25,0.25 0.5,0.5 0.25,0.25 0.5,0.5 0.25,0.25 0.5,0.5 0.25,0.25 0.5,0.5 0.25,0.25 0.5,0.5 0.25,0.25 0.5,0.5 0.25,0.25 0.375,0.625 Q 28,13 28,13.5 V 14 H 27.5 Q 27,14 27,14.5 27,15 26.5,15 26,15 26,15.5 26,16 25.5,16 25,16 25,16.5 25,17 24.5,17 24,17 24,17.5 24,18 23.5,18 23,18 23,18.5 23,19 22.5,19 22,19 22,19.5 22,20 21.5,20 21,20 21,20.5 21,21 20.5,21 20,21 20,21.5 20,22 19.5,22 19,22 19,22.5 19,23 18.5,23 18,23 18,23.5 18,24 17.5,24 q -0.5,0 -1,0 -0.5,0 -1,0 -0.5,0 -1,0 Q 14,24 14,23.5 14,23 13.5,23 13,23 13,22.5 13,22 12.5,22 12,22 12,21.5 12,21 11.5,21 11,21 11,20.5 11,20 10.5,20 10,20 10,19.5 10,19 9.5,19 9,19 9,18.5 9,18 8.5,18 8,18 8,17.5 8,17 7.5,17 7,17 7,16.5 7,16 6.5,16 6,16 6,15.5 6,15 5.5,15 5,15 5,14.5 5,14 4.5,14 H 4 V 13.5 Q 4,13 4.125,12.625 4.25,12.25 4.5,12 4.75,11.75 5,11.5 5.25,11.25 5.5,11 5.75,10.75 6,10.5 6.25,10.25 6.5,10 6.75,9.75 7,9.5 7.25,9.25 7.5,9 7.75,8.75 8,8.5 8.25,8.25 8.5,8 8.75,7.75 9,7.5 9.25,7.25 9.5,7 9.75,6.75 10,6.5 10.25,6.25 10.5,6 10.75,5.75 11,5.5 11.25,5.25 11.5,5 11.75,4.75 12,4.5 12.25,4.25 12.5,4 12.75,3.75 13,3.5 13.25,3.25 13.5,3 13.75,2.75 14,2.5 M 22.5,14 Q 23,14 23,13.5 23,13 23.5,13 24,13 24,12.5 24,12 24,11.5 24,11 23.5,11 23,11 23,10.5 23,10 22.5,10 22,10 22,9.5 22,9 21.5,9 21,9 21,8.5 21,8 20.5,8 20,8 20,7.5 20,7 19.5,7 19,7 19,6.5 19,6 18.5,6 18,6 18,5.5 18,5 17.5,5 17,5 17,4.5 17,4 16.5,4 16,4 15.5,4 15,4 15,4.5 15,5 14.5,5 14,5 14,5.5 14,6 14,6.5 14,7 14.5,7 15,7 15,7.5 15,8 15.5,8 16,8 16,8.5 16,9 16.5,9 17,9 17,9.5 q 0,0.5 0.5,0.5 0.5,0 0.5,0.5 0,0.5 0.5,0.5 0.5,0 0.5,0.5 0,0.5 0.5,0.5 0.5,0 0.5,0.5 0,0.5 0.5,0.5 0.5,0 0.5,0.5 0,0.5 0.5,0.5 0.5,0 1,0"
       id="path7521"
       inkscape:connector-curvature="0" />
    <path
       style="fill:#edf3a9;fill-opacity:1"
       d="M 15,4.5 Q 15,4 15.5,4 16,4 16.5,4 17,4 17,4.5 17,5 17.5,5 18,5 18,5.5 18,6 18.5,6 19,6 19,6.5 19,7 19.5,7 20,7 20,7.5 20,8 20.5,8 21,8 21,8.5 21,9 21.5,9 22,9 22,9.5 22,10 22.5,10 23,10 23,10.5 23,11 23.5,11 24,11 24,11.5 24,12 24,12.5 24,13 23.5,13 23,13 23,13.5 23,14 22.5,14 22,14 21.5,14 21,14 21,13.5 21,13 20.5,13 20,13 20,12.5 20,12 19.5,12 19,12 19,11.5 19,11 18.5,11 18,11 18,10.5 18,10 17.5,10 17,10 17,9.5 17,9 16.5,9 16,9 16,8.5 16,8 15.5,8 15,8 15,7.5 15,7 14.5,7 14,7 14,6.5 14,6 14,5.5 14,5 14.5,5 15,5 15,4.5"
       id="path7523"
       inkscape:connector-curvature="0" />
    <path
       style="fill:#9cb664;fill-opacity:1"
       d="M 4,14.5 V 14 H 4.5 Q 5,14 5,14.5 5,15 5.5,15 6,15 6,15.5 6,16 6.5,16 7,16 7,16.5 7,17 7.5,17 8,17 8,17.5 8,18 8.5,18 9,18 9,18.5 9,19 9.5,19 q 0.5,0 0.5,0.5 0,0.5 0.5,0.5 0.5,0 0.5,0.5 0,0.5 0.5,0.5 0.5,0 0.5,0.5 0,0.5 0.5,0.5 0.5,0 0.5,0.5 0,0.5 0.5,0.5 0.5,0 0.5,0.5 0,0.5 0.5,0.5 0.5,0 1,0 0.5,0 1,0 0.5,0 1,0 Q 18,24 18,23.5 18,23 18.5,23 19,23 19,22.5 19,22 19.5,22 20,22 20,21.5 20,21 20.5,21 21,21 21,20.5 21,20 21.5,20 22,20 22,19.5 22,19 22.5,19 23,19 23,18.5 23,18 23.5,18 24,18 24,17.5 24,17 24.5,17 25,17 25,16.5 25,16 25.5,16 26,16 26,15.5 26,15 26.5,15 27,15 27,14.5 27,14 27.5,14 H 28 v 0.5 q 0,0.5 0,1 0,0.5 0,1 0,0.5 0,1 0,0.5 0,1 0,0.5 -0.125,0.875 Q 27.75,19.75 27.5,20 27.25,20.25 27,20.5 26.75,20.75 26.5,21 26.25,21.25 26,21.5 25.75,21.75 25.5,22 25.25,22.25 25,22.5 24.75,22.75 24.5,23 24.25,23.25 24,23.5 23.75,23.75 23.5,24 23.25,24.25 23,24.5 22.75,24.75 22.5,25 22.25,25.25 22,25.5 21.75,25.75 21.5,26 21.25,26.25 21,26.5 20.75,26.75 20.5,27 20.25,27.25 20,27.5 19.75,27.75 19.5,28 19.25,28.25 19,28.5 18.75,28.75 18.5,29 18.25,29.25 18,29.5 17.75,29.75 17.375,29.875 17,30 16.5,30 16,30 15.5,30 15,30 14.625,29.875 14.25,29.75 14,29.5 13.75,29.25 13.5,29 13.25,28.75 13,28.5 12.75,28.25 12.5,28 12.25,27.75 12,27.5 11.75,27.25 11.5,27 11.25,26.75 11,26.5 10.75,26.25 10.5,26 10.25,25.75 10,25.5 9.75,25.25 9.5,25 9.25,24.75 9,24.5 8.75,24.25 8.5,24 8.25,23.75 8,23.5 7.75,23.25 7.5,23 7.25,22.75 7,22.5 6.75,22.25 6.5,22 6.25,21.75 6,21.5 5.75,21.25 5.5,21 5.25,20.75 5,20.5 4.75,20.25 4.5,20 4.25,19.75 4.125,19.375 4,19 4,18.5 4,18 4,17.5 4,17 4,16.5 4,16 4,15.5 4,15 4,14.5"
       id="path7525"
       inkscape:connector-curvature="0" />
  </g>
</svg>

<svg xmlns="http://www.w3.org/2000/svg" viewBox="0 0 32 32"><path d="M0 .5V0h32v32H0V.5M16.5 30q.5 0 .875-.125T18 29.5l.5-.5.5-.5.5-.5.5-.5.5-.5.5-.5.5-.5.5-.5.5-.5.5-.5.5-.5.5-.5.5-.5.5-.5.5-.5.5-.5.5-.5.5-.5.5-.5q.25-.25.375-.625T28 18.5v-1-1-1-2q0-.5-.125-.875T27.5 12l-.5-.5-.5-.5-.5-.5-.5-.5-.5-.5-.5-.5-.5-.5-.5-.5-.5-.5-.5-.5-.5-.5-.5-.5-.5-.5-.5-.5-.5-.5-.5-.5-.5-.5-.5-.5-.5-.5q-.25-.25-.625-.375T16.5 2h-1q-.5 0-.875.125T14 2.5l-.5.5-.5.5-.5.5-.5.5-.5.5-.5.5-.5.5-.5.5-.5.5-.5.5-.5.5-.5.5-.5.5-.5.5-.5.5-.5.5-.5.5-.5.5-.5.5q-.25.25-.375.625T4 13.5v5q0 .5.125.875T4.5 20l.5.5.5.5.5.5.5.5.5.5.5.5.5.5.5.5.5.5.5.5.5.5.5.5.5.5.5.5.5.5.5.5.5.5.5.5.5.5q.25.25.625.375T15.5 30h1" fill="none"/><path d="M14 2.5q.25-.25.625-.375T15.5 2h1q.5 0 .875.125T18 2.5l.5.5.5.5.5.5.5.5.5.5.5.5.5.5.5.5.5.5.5.5.5.5.5.5.5.5.5.5.5.5.5.5.5.5.5.5.5.5q.25.25.375.625T28 13.5v.5h-.5q-.5 0-.5.5t-.5.5-.5.5-.5.5-.5.5-.5.5-.5.5-.5.5-.5.5-.5.5-.5.5-.5.5-.5.5-.5.5-.5.5-.5.5-.5.5-.5.5-.5.5-.5.5h-3q-.5 0-.5-.5t-.5-.5-.5-.5-.5-.5-.5-.5-.5-.5-.5-.5-.5-.5-.5-.5-.5-.5-.5-.5-.5-.5-.5-.5-.5-.5-.5-.5-.5-.5-.5-.5-.5-.5-.5-.5-.5-.5H4v-.5q0-.5.125-.875T4.5 12l.5-.5.5-.5.5-.5.5-.5.5-.5.5-.5.5-.5.5-.5.5-.5.5-.5.5-.5.5-.5.5-.5.5-.5.5-.5.5-.5.5-.5.5-.5.5-.5M22.5 14q.5 0 .5-.5t.5-.5.5-.5v-1q0-.5-.5-.5t-.5-.5-.5-.5-.5-.5-.5-.5-.5-.5-.5-.5-.5-.5-.5-.5-.5-.5-.5-.5-.5-.5-.5-.5-.5-.5-.5-.5h-1q-.5 0-.5.5t-.5.5-.5.5v1q0 .5.5.5t.5.5.5.5.5.5.5.5.5.5.5.5.5.5.5.5.5.5.5.5.5.5.5.5.5.5.5.5h1" fill="#cbd97f"/><path d="M15 4.5q0-.5.5-.5h1q.5 0 .5.5t.5.5.5.5.5.5.5.5.5.5.5.5.5.5.5.5.5.5.5.5.5.5.5.5.5.5.5.5v1q0 .5-.5.5t-.5.5-.5.5h-1q-.5 0-.5-.5t-.5-.5-.5-.5-.5-.5-.5-.5-.5-.5-.5-.5-.5-.5-.5-.5-.5-.5-.5-.5-.5-.5-.5-.5-.5-.5-.5-.5v-1q0-.5.5-.5t.5-.5" fill="#edf3a9"/><path d="M4 14.5V14h.5q.5 0 .5.5t.5.5.5.5.5.5.5.5.5.5.5.5.5.5.5.5.5.5.5.5.5.5.5.5.5.5.5.5.5.5.5.5.5.5.5.5.5.5h3q.5 0 .5-.5t.5-.5.5-.5.5-.5.5-.5.5-.5.5-.5.5-.5.5-.5.5-.5.5-.5.5-.5.5-.5.5-.5.5-.5.5-.5.5-.5.5-.5.5-.5.5-.5h.5v4.5q0 .5-.125.875T27.5 20l-.5.5-.5.5-.5.5-.5.5-.5.5-.5.5-.5.5-.5.5-.5.5-.5.5-.5.5-.5.5-.5.5-.5.5-.5.5-.5.5-.5.5-.5.5-.5.5q-.25.25-.625.375T16.5 30h-1q-.5 0-.875-.125T14 29.5l-.5-.5-.5-.5-.5-.5-.5-.5-.5-.5-.5-.5-.5-.5-.5-.5-.5-.5-.5-.5-.5-.5-.5-.5-.5-.5-.5-.5-.5-.5-.5-.5-.5-.5-.5-.5-.5-.5q-.25-.25-.375-.625T4 18.5v-1-1-1-1" fill="#9cb664"/></svg>
